packages/foundations/assets/icons/functional/images/security/fingerprint.svg

<svg xmlns="http://www.w3.org/2000/svg" width="32" height="32" fill="none"><path fill="#1A1C1F" fill-rule="evenodd" d="M15.413 2.486c-1.986.106-3.786.493-5.546 1.194-1.304.518-3.493 1.786-4.054 2.347-.317.317-.395.708-.219 1.095a.99.99 0 0 0 1.485.409c1.552-1.08 2.312-1.505 3.655-2.042 1.003-.402 2.308-.735 3.559-.91.778-.109 3.116-.094 3.92.025 2.326.344 4.358 1.118 6.232 2.376 1.169.784 1.228.81 1.627.702.439-.118.755-.52.755-.962 0-.476-.186-.687-1.203-1.366-2.347-1.569-4.931-2.507-7.677-2.788-.612-.062-2.023-.107-2.534-.08m-.16 4.024c-4.803.315-9.121 3.383-11.031 7.837-.731 1.706-1.045 3.267-1.042 5.173.002 1.24.041 1.501.272 1.806.424.56 1.356.466 1.662-.167.107-.222.112-.286.079-1.164-.04-1.059.025-1.873.226-2.834.765-3.654 3.45-6.732 7.008-8.032 1.997-.73 4.276-.846 6.405-.326.752.184.943.193 1.21.056.378-.194.545-.467.545-.891 0-.538-.297-.852-.981-1.037a15 15 0 0 0-2.513-.421c-.808-.061-.919-.061-1.84 0m7.245 2.284a.94.94 0 0 0-.453.925c.043.364.179.543.721.949.61.456 1.769 1.615 2.205 2.203.73.986 1.3 2.084 1.675 3.225.253.77.236 1.083-.076 1.417-.407.436-1.002.453-1.424.041-.142-.139-.227-.318-.399-.834-.584-1.75-1.614-3.226-3.014-4.318-2.745-2.14-6.379-2.528-9.493-1.013-2.535 1.234-4.328 3.551-4.903 6.337-.182.88-.035 1.322.517 1.552a1 1 0 0 0 .772 0c.392-.163.551-.417.654-1.038.396-2.397 2.226-4.542 4.587-5.374.81-.286 1.262-.357 2.293-.358.705-.001 1.044.022 1.387.096 1.358.291 2.471.879 3.465 1.831a7.1 7.1 0 0 1 1.887 3.063c.305.977.78 1.599 1.518 1.986 1.231.646 2.629.42 3.577-.578.443-.466.657-.886.785-1.537.117-.595.063-.993-.268-1.984-.641-1.918-1.588-3.476-3-4.933-.67-.691-1.593-1.472-1.999-1.692a.99.99 0 0 0-1.014.034m-7.19 5.737c-1.899.362-3.332 1.635-3.913 3.477-.266.846-.278 1.809-.033 2.838a13.65 13.65 0 0 0 2.986 5.845c.636.738 1.746 1.765 2.729 2.523.525.405.989.422 1.412.051a.92.92 0 0 0 .338-.732c0-.438-.061-.512-1.12-1.385-1.598-1.316-2.679-2.625-3.456-4.188-.552-1.108-.98-2.434-1.058-3.276-.13-1.398.836-2.756 2.223-3.125.392-.105 1.184-.101 1.548.007.49.145.912.393 1.284.753.446.43.68.864.898 1.666.214.784.428 1.294.76 1.804.877 1.346 1.962 2.081 3.791 2.568.745.199 1.163.469 1.67 1.082.346.419.499.533.802.598.374.08.908-.218 1.066-.594.095-.228.091-.56-.009-.8-.113-.27-.62-.876-.999-1.192-.639-.534-1.273-.845-2.227-1.092-.706-.183-1.117-.375-1.59-.745-.678-.531-1.077-1.187-1.345-2.214-.279-1.071-.711-1.83-1.446-2.539A5 5 0 0 0 17.4 14.61c-.553-.142-1.562-.18-2.092-.079m.452 4.023c-.292.135-.457.33-.533.628-.082.322-.009.728.291 1.624 1.067 3.193 3.615 5.52 6.97 6.365.424.107.636.102.901-.018.443-.201.683-.673.566-1.112-.134-.499-.357-.658-1.262-.901a7.65 7.65 0 0 1-5.422-5.458c-.088-.338-.198-.675-.245-.749a1.016 1.016 0 0 0-1.266-.379m-7.484 2.632c-.485.102-.821.661-.706 1.174.149.665.691 1.995 1.135 2.787.709 1.265 1.049 1.658 1.517 1.757.393.083.958-.253 1.088-.647.123-.373.045-.654-.347-1.254-.471-.718-1.096-2-1.335-2.734-.222-.681-.281-.785-.549-.956-.239-.153-.492-.193-.803-.127"/></svg>

<svg width="32" height="32" viewBox="0 0 32 32" fill="none" xmlns="http://www.w3.org/2000/svg"><path d="M15.413 2.486 C 13.427 2.592,11.627 2.979,9.867 3.680 C 8.563 4.198,6.374 5.466,5.813 6.027 C 5.496 6.344,5.418 6.735,5.594 7.122 C 5.858 7.704,6.554 7.896,7.079 7.531 C 8.631 6.451,9.391 6.026,10.734 5.489 C 11.737 5.087,13.042 4.754,14.293 4.579 C 15.071 4.470,17.409 4.485,18.213 4.604 C 20.539 4.948,22.571 5.722,24.445 6.980 C 25.614 7.764,25.673 7.790,26.072 7.682 C 26.511 7.564,26.827 7.162,26.827 6.720 C 26.827 6.244,26.641 6.033,25.624 5.354 C 23.277 3.785,20.693 2.847,17.947 2.566 C 17.335 2.504,15.924 2.459,15.413 2.486 M15.253 6.510 C 10.450 6.825,6.132 9.893,4.222 14.347 C 3.491 16.053,3.177 17.614,3.180 19.520 C 3.182 20.760,3.221 21.021,3.452 21.326 C 3.876 21.886,4.808 21.792,5.114 21.159 C 5.221 20.937,5.226 20.873,5.193 19.995 C 5.153 18.936,5.218 18.122,5.419 17.161 C 6.184 13.507,8.869 10.429,12.427 9.129 C 14.424 8.399,16.703 8.283,18.832 8.803 C 19.584 8.987,19.775 8.996,20.042 8.859 C 20.420 8.665,20.587 8.392,20.587 7.968 C 20.587 7.430,20.290 7.116,19.606 6.931 C 18.899 6.739,17.890 6.570,17.093 6.510 C 16.285 6.449,16.174 6.449,15.253 6.510 M22.498 8.794 C 22.167 9.004,22.000 9.344,22.045 9.719 C 22.088 10.083,22.224 10.262,22.766 10.668 C 23.376 11.124,24.535 12.283,24.971 12.871 C 25.701 13.857,26.271 14.955,26.646 16.096 C 26.899 16.866,26.882 17.179,26.570 17.513 C 26.163 17.949,25.568 17.966,25.146 17.554 C 25.004 17.415,24.919 17.236,24.747 16.720 C 24.163 14.970,23.133 13.494,21.733 12.402 C 18.988 10.262,15.354 9.874,12.240 11.389 C 9.705 12.623,7.912 14.940,7.337 17.726 C 7.155 18.606,7.302 19.048,7.854 19.278 C 8.103 19.382,8.377 19.382,8.626 19.278 C 9.018 19.115,9.177 18.861,9.280 18.240 C 9.676 15.843,11.506 13.698,13.867 12.866 C 14.677 12.580,15.129 12.509,16.160 12.508 C 16.865 12.507,17.204 12.530,17.547 12.604 C 18.905 12.895,20.018 13.483,21.012 14.435 C 21.897 15.281,22.525 16.302,22.899 17.498 C 23.204 18.475,23.679 19.097,24.417 19.484 C 25.648 20.130,27.046 19.904,27.994 18.906 C 28.437 18.440,28.651 18.020,28.779 17.369 C 28.896 16.774,28.842 16.376,28.511 15.385 C 27.870 13.467,26.923 11.909,25.511 10.452 C 24.841 9.761,23.918 8.980,23.512 8.760 C 23.186 8.584,22.810 8.596,22.498 8.794 M15.308 14.531 C 13.409 14.893,11.976 16.166,11.395 18.008 C 11.129 18.854,11.117 19.817,11.362 20.846 C 11.882 23.037,12.874 24.979,14.348 26.691 C 14.984 27.429,16.094 28.456,17.077 29.214 C 17.602 29.619,18.066 29.636,18.489 29.265 C 18.719 29.063,18.827 28.830,18.827 28.533 C 18.827 28.095,18.766 28.021,17.707 27.148 C 16.109 25.832,15.028 24.523,14.251 22.960 C 13.699 21.852,13.271 20.526,13.193 19.684 C 13.063 18.286,14.029 16.928,15.416 16.559 C 15.808 16.454,16.600 16.458,16.964 16.566 C 17.454 16.711,17.876 16.959,18.248 17.319 C 18.694 17.749,18.928 18.183,19.146 18.985 C 19.360 19.769,19.574 20.279,19.906 20.789 C 20.783 22.135,21.868 22.870,23.697 23.357 C 24.442 23.556,24.860 23.826,25.367 24.439 C 25.713 24.858,25.866 24.972,26.169 25.037 C 26.543 25.117,27.077 24.819,27.235 24.443 C 27.330 24.215,27.326 23.883,27.226 23.643 C 27.113 23.373,26.606 22.767,26.227 22.451 C 25.588 21.917,24.954 21.606,24.000 21.359 C 23.294 21.176,22.883 20.984,22.410 20.614 C 21.732 20.083,21.333 19.427,21.065 18.400 C 20.786 17.329,20.354 16.570,19.619 15.861 C 18.991 15.254,18.224 14.822,17.400 14.610 C 16.847 14.468,15.838 14.430,15.308 14.531 M15.760 18.554 C 15.468 18.689,15.303 18.884,15.227 19.182 C 15.145 19.504,15.218 19.910,15.518 20.806 C 16.585 23.999,19.133 26.326,22.488 27.171 C 22.912 27.278,23.124 27.273,23.389 27.153 C 23.832 26.952,24.072 26.480,23.955 26.041 C 23.821 25.542,23.598 25.383,22.693 25.140 C 20.035 24.428,17.959 22.338,17.271 19.682 C 17.183 19.344,17.073 19.007,17.026 18.933 C 16.756 18.512,16.207 18.348,15.760 18.554 M8.276 21.186 C 7.791 21.288,7.455 21.847,7.570 22.360 C 7.719 23.025,8.261 24.355,8.705 25.147 C 9.414 26.412,9.754 26.805,10.222 26.904 C 10.615 26.987,11.180 26.651,11.310 26.257 C 11.433 25.884,11.355 25.603,10.963 25.003 C 10.492 24.285,9.867 23.003,9.628 22.269 C 9.406 21.588,9.347 21.484,9.079 21.313 C 8.840 21.160,8.587 21.120,8.276 21.186 " fill="#1A1C1F" stroke="none" fill-rule="evenodd"></path></svg>
